svg/lightbulb_on_30.svg

<svg xmlns="http://www.w3.org/2000/svg" viewBox="0 0 24 24"><path d="M7 5.6 5.6 7 3.5 4.9l1.4-1.4zM1 13h3v-2H1zM13 1h-2v3h2zm5 11c0 2.2-1.2 4.2-3 5.2V19c0 .6-.4 1-1 1h-4c-.6 0-1-.4-1-1v-1.8c-1.8-1-3-3-3-5.2 0-3.3 2.7-6 6-6s6 2.7 6 6m-2 0c0-2.21-1.79-4-4-4s-4 1.79-4 4c0 1.2.54 2.27 1.38 3h5.24c.84-.73 1.38-1.8 1.38-3m-6 10c0 .6.4 1 1 1h2c.6 0 1-.4 1-1v-1h-4zm10-11v2h3v-2zm-.9-7.5L17 5.6 18.4 7l2.1-2.1z"/></svg>

<svg xmlns="http://www.w3.org/2000/svg" id="mdi-lightbulb-on-30" viewBox="0 0 24 24"><path d="M7 5.6L5.6 7L3.5 4.9L4.9 3.5L7 5.6M1 13H4V11H1V13M13 1H11V4H13V1M18 12C18 14.2 16.8 16.2 15 17.2V19C15 19.6 14.6 20 14 20H10C9.4 20 9 19.6 9 19V17.2C7.2 16.2 6 14.2 6 12C6 8.7 8.7 6 12 6S18 8.7 18 12M16 12C16 9.79 14.21 8 12 8S8 9.79 8 12C8 13.2 8.54 14.27 9.38 15H14.62C15.46 14.27 16 13.2 16 12M10 22C10 22.6 10.4 23 11 23H13C13.6 23 14 22.6 14 22V21H10V22M20 11V13H23V11H20M19.1 3.5L17 5.6L18.4 7L20.5 4.9L19.1 3.5Z" /></svg>
